;SETUP
;TIME:2929s or 49mins or 0.81hrs
;Offset 0.00mm, Wrap Height: 130.00mm
;Generated with Cura, edited w/ JC Gcode Art

G28 ;Home all Axes
M107 ;Set Fan to Off
M140 S-273.15 ;Set Bed Temp to Off
M104 S20 ;Set Hot End to 20deg C
M302 S0 ;Allow Cold Extrusion

G0 F6000 X0 Y0 ;Go to Starting Corner
G4 S10 ;Wait 10 seconds

;---- Loop No: 0 ----
;LAYER:0
G0 F6000 X29.56 Y31.895 Z65.30 G1 F600 X37.544 Y24.362 
G1 X46.3 Y17.735 
G1 X55.732 Y12.09 
G1 X65.716 Y7.503 
G1 X76.139 Y4.024 
G1 X86.844 Y1.704 
G1 X136.144 Y1.701 
G1 X146.861 Y4.024 
G1 X157.284 Y7.503 
G1 X167.268 Y12.09 
G1 X176.7 Y17.735 
G1 X185.456 Y24.362 
G1 X193.44 Y31.895 
G1 X200.571 Y40.264 
G1 X206.74 Y49.334 
G1 X211.902 Y59.045 
G1 X215.975 Y69.242 
G1 X218.924 Y79.838 
G1 X220.702 Y90.656 
G1 X221.3 Y101.646 
G1 X221.3 Y121.354 
G1 X220.702 Y132.34 
G1 X218.924 Y143.162 
G1 X215.975 Y153.758 
G1 X211.902 Y163.955 
G1 X206.741 Y173.664 
G1 X200.571 Y182.736 
G1 X193.44 Y191.105 
G1 X185.456 Y198.638 
G1 X176.7 Y205.265 
G1 X167.268 Y210.91 
G1 X157.284 Y215.497 
G1 X146.861 Y218.976 
G1 X136.144 Y221.299 
G1 X86.856 Y221.299 
G1 X76.139 Y218.976 
G1 X65.716 Y215.497 
G1 X55.732 Y210.91 
G1 X46.3 Y205.265 
G1 X37.544 Y198.638 
G1 X29.56 Y191.105 
G1 X22.429 Y182.736 
G1 X16.259 Y173.664 
G1 X11.098 Y163.955 
G1 X7.025 Y153.758 
G1 X4.076 Y143.162 
G1 X2.298 Y132.34 
G1 X1.7 Y121.354 
G1 X1.7 Y101.646 
G1 X2.298 Y90.656 
G1 X4.076 Y79.838 
G1 X7.025 Y69.242 
G1 X11.098 Y59.045 
G1 X16.26 Y49.334 
G1 X22.429 Y40.264 
G1 X29.56 Y31.895 
G1 X37.544 Y24.362 Z65.30  
G1 X46.3 Y17.735 Z65.31  
G1 X55.732 Y12.09 Z65.31  
G1 X65.716 Y7.503 Z65.32  
G1 X76.139 Y4.024 Z65.32  
G1 X86.844 Y1.704 Z65.33  
G1 X136.144 Y1.701 Z65.35  
G1 X146.861 Y4.024 Z65.35  
G1 X157.284 Y7.503 Z65.36  
G1 X167.268 Y12.09 Z65.36  
G1 X176.7 Y17.735 Z65.37  
G1 X185.456 Y24.362 Z65.37  
G1 X193.44 Y31.895 Z65.38  
G1 X200.571 Y40.264 Z65.38  
G1 X206.74 Y49.334 Z65.39  
G1 X211.902 Y59.045 Z65.39  
G1 X215.975 Y69.242 Z65.39  
G1 X218.924 Y79.838 Z65.40  
G1 X220.702 Y90.656 Z65.40  
G1 X221.3 Y101.646 Z65.41  
G1 X221.3 Y121.354 Z65.42  
G1 X220.702 Y132.34 Z65.42  
G1 X218.924 Y143.162 Z65.43  
G1 X215.975 Y153.758 Z65.43  
G1 X211.902 Y163.955 Z65.44  
G1 X206.741 Y173.664 Z65.44  
G1 X200.571 Y182.736 Z65.44  
G1 X193.44 Y191.105 Z65.45  
G1 X185.456 Y198.638 Z65.45  
G1 X176.7 Y205.265 Z65.46  
G1 X167.268 Y210.91 Z65.46  
G1 X157.284 Y215.497 Z65.47  
G1 X146.861 Y218.976 Z65.47  
G1 X136.144 Y221.299 Z65.48  
G1 X86.856 Y221.299 Z65.50  
G1 X76.139 Y218.976 Z65.50  
G1 X65.716 Y215.497 Z65.51  
G1 X55.732 Y210.91 Z65.51  
G1 X46.3 Y205.265 Z65.52  
G1 X37.544 Y198.638 Z65.52  
G1 X29.56 Y191.105 Z65.53  
G1 X22.429 Y182.736 Z65.53  
G1 X16.259 Y173.664 Z65.53  
G1 X11.098 Y163.955 Z65.54  
G1 X7.025 Y153.758 Z65.55  
G1 X4.076 Y143.162 Z65.55  
G1 X2.298 Y132.34 Z65.55  
G1 X1.7 Y121.354 Z65.56  
G1 X1.7 Y101.646 Z65.57  
G1 X2.298 Y90.656 Z65.57  
G1 X4.076 Y79.838 Z65.58  
G1 X7.025 Y69.242 Z65.58  
G1 X11.098 Y59.045 Z65.59  
G1 X16.26 Y49.334 Z65.59  
G1 X22.429 Y40.264 Z65.59  
G1 X29.56 Y31.895 Z65.60  
;LAYER:1
G1 F3300 X37.544 Y24.362 Z65.60  
G1 X46.3 Y17.735 Z65.61  
G1 X55.732 Y12.09 Z65.61  
G1 X65.716 Y7.503 Z65.62  
G1 X76.139 Y4.024 Z65.62  
G1 X86.856 Y1.704 Z65.63  
G1 X136.144 Y1.701 Z65.65  
G1 X146.861 Y4.024 Z65.65  
G1 X157.284 Y7.503 Z65.66  
G1 X167.268 Y12.09 Z65.66  
G1 X176.7 Y17.735 Z65.67  
G1 X185.456 Y24.362 Z65.67  
G1 X193.44 Y31.895 Z65.68  
G1 X200.571 Y40.264 Z65.68  
G1 X206.74 Y49.334 Z65.69  
G1 X211.902 Y59.045 Z65.69  
G1 X215.975 Y69.242 Z65.70  
G1 X218.924 Y79.838 Z65.70  
G1 X220.702 Y90.656 Z65.71  
G1 X221.3 Y101.646 Z65.71  
G1 X221.3 Y121.354 Z65.72  
G1 X220.702 Y132.34 Z65.72  
G1 X218.924 Y143.162 Z65.73  
G1 X215.975 Y153.758 Z65.73  
G1 X211.902 Y163.955 Z65.74  
G1 X206.741 Y173.664 Z65.74  
G1 X200.571 Y182.736 Z65.75  
G1 X193.44 Y191.105 Z65.75  
G1 X185.456 Y198.638 Z65.76  
G1 X176.7 Y205.265 Z65.76  
G1 X167.268 Y210.91 Z65.77  
G1 X157.284 Y215.497 Z65.77  
G1 X146.861 Y218.976 Z65.78  
G1 X136.144 Y221.299 Z65.78  
G1 X86.856 Y221.299 Z65.80  
G1 X76.139 Y218.976 Z65.81  
G1 X65.716 Y215.497 Z65.81  
G1 X55.732 Y210.91 Z65.82  
G1 X46.3 Y205.265 Z65.82  
G1 X37.544 Y198.638 Z65.83  
G1 X29.56 Y191.105 Z65.83  
G1 X22.429 Y182.736 Z65.83  
G1 X16.259 Y173.664 Z65.84  
G1 X11.098 Y163.955 Z65.84  
G1 X7.025 Y153.758 Z65.85  
G1 X4.076 Y143.162 Z65.85  
G1 X2.298 Y132.34 Z65.86  
G1 X1.7 Y121.354 Z65.86  
G1 X1.7 Y101.646 Z65.87  
G1 X2.298 Y90.656 Z65.88  
G1 X4.076 Y79.838 Z65.88  
G1 X7.025 Y69.242 Z65.89  
G1 X11.098 Y59.045 Z65.89  
G1 X16.26 Y49.334 Z65.89  
G1 X22.429 Y40.264 Z65.90  
;LAYER:2
G1 F6000 X29.56 Y31.895 Z65.90  
G1 X37.544 Y24.362 Z65.91  
G1 X46.3 Y17.735 Z65.91  
G1 X55.732 Y12.09 Z65.92  
G1 X65.716 Y7.503 Z65.92  
G1 X76.139 Y4.024 Z65.93  
G1 X86.856 Y1.701 Z65.93  
G1 X136.144 Y1.701 Z65.95  
G1 X146.861 Y4.024 Z65.96  
G1 X157.284 Y7.503 Z65.96  
G1 X167.268 Y12.09 Z65.97  
G1 X176.7 Y17.735 Z65.97  
G1 X185.456 Y24.362 Z65.98  
G1 X193.44 Y31.895 Z65.98  
G1 X200.571 Y40.264 Z65.99  
G1 X206.74 Y49.334 Z65.99  
G1 X211.902 Y59.045 Z66.00  
G1 X215.975 Y69.242 Z66.00  
G1 X218.924 Y79.838 Z66.01  
G1 X220.702 Y90.656 Z66.01  
G1 X221.3 Y101.646 Z66.02  
G1 X221.3 Y121.354 Z66.02  
G1 X220.702 Y132.34 Z66.03  
G1 X218.924 Y143.162 Z66.03  
G1 X215.975 Y153.758 Z66.04  
G1 X211.902 Y163.955 Z66.04  
G1 X206.741 Y173.664 Z66.05  
G1 X200.571 Y182.736 Z66.05  
G1 X193.44 Y191.105 Z66.06  
G1 X185.456 Y198.638 Z66.06  
G1 X176.7 Y205.265 Z66.07  
G1 X167.268 Y210.91 Z66.07  
G1 X157.284 Y215.497 Z66.08  
G1 X146.861 Y218.976 Z66.08  
G1 X136.144 Y221.299 Z66.08  
G1 X86.856 Y221.299 Z66.11  
G1 X76.139 Y218.976 Z66.11  
G1 X65.716 Y215.497 Z66.12  
G1 X55.732 Y210.91 Z66.12  
G1 X46.3 Y205.265 Z66.12  
G1 X37.544 Y198.638 Z66.13  
G1 X29.56 Y191.105 Z66.13  
G1 X22.429 Y182.736 Z66.14  
G1 X16.259 Y173.664 Z66.14  
G1 X11.098 Y163.955 Z66.15  
G1 X7.025 Y153.758 Z66.15  
G1 X4.076 Y143.162 Z66.16  
G1 X2.298 Y132.34 Z66.16  
G1 X1.7 Y121.354 Z66.17  
G1 X1.7 Y101.646 Z66.18  
G1 X2.298 Y90.656 Z66.18  
G1 X4.076 Y79.838 Z66.19  
G1 X7.025 Y69.242 Z66.19  
G1 X11.098 Y59.045 Z66.19  
G1 X16.26 Y49.334 Z66.20  
;LAYER:3
G1 X22.429 Y40.264 Z66.20  
G1 X29.56 Y31.895 Z66.21  
G1 X37.544 Y24.362 Z66.21  
G1 X46.3 Y17.735 Z66.22  
G1 X55.732 Y12.09 Z66.22  
G1 X65.716 Y7.503 Z66.23  
G1 X76.139 Y4.024 Z66.23  
G1 X86.856 Y1.701 Z66.24  
G1 X136.144 Y1.701 Z66.26  
G1 X146.861 Y4.024 Z66.26  
G1 X157.284 Y7.503 Z66.27  
G1 X167.268 Y12.09 Z66.27  
G1 X176.7 Y17.735 Z66.28  
G1 X185.456 Y24.362 Z66.28  
G1 X193.44 Y31.895 Z66.29  
G1 X200.571 Y40.264 Z66.29  
G1 X206.74 Y49.334 Z66.30  
G1 X211.902 Y59.045 Z66.30  
G1 X215.975 Y69.242 Z66.31  
G1 X218.924 Y79.838 Z66.31  
G1 X220.702 Y90.656 Z66.31  
G1 X221.3 Y101.646 Z66.32  
G1 X221.3 Y121.354 Z66.33  
G1 X220.702 Y132.34 Z66.33  
G1 X218.924 Y143.162 Z66.34  
G1 X215.975 Y153.758 Z66.34  
G1 X211.902 Y163.955 Z66.35  
G1 X206.741 Y173.664 Z66.35  
G1 X200.571 Y182.736 Z66.36  
G1 X193.44 Y191.105 Z66.36  
G1 X185.456 Y198.638 Z66.37  
G1 X176.7 Y205.265 Z66.37  
G1 X167.268 Y210.91 Z66.38  
G1 X157.284 Y215.497 Z66.38  
G1 X146.861 Y218.976 Z66.39  
G1 X136.144 Y221.299 Z66.39  
G1 X86.856 Y221.299 Z66.41  
G1 X76.139 Y218.976 Z66.42  
G1 X65.716 Y215.497 Z66.42  
G1 X55.732 Y210.91 Z66.42  
G1 X46.3 Y205.265 Z66.43  
G1 X37.544 Y198.638 Z66.43  
G1 X29.56 Y191.105 Z66.44  
G1 X22.429 Y182.736 Z66.44  
G1 X16.259 Y173.664 Z66.45  
G1 X11.098 Y163.955 Z66.45  
G1 X7.025 Y153.758 Z66.46  
G1 X4.076 Y143.162 Z66.46  
G1 X2.298 Y132.34 Z66.47  
G1 X1.7 Y121.354 Z66.47  
G1 X1.7 Y101.646 Z66.48  
G1 X2.298 Y90.656 Z66.48  
G1 X4.076 Y79.838 Z66.49  
G1 X7.025 Y69.242 Z66.50  
G1 X11.098 Y59.045 Z66.50  
;LAYER:4
G1 X16.26 Y49.334 Z66.50  
G1 X22.429 Y40.264 Z66.51  
G1 X29.56 Y31.895 Z66.51  
G1 X37.544 Y24.362 Z66.52  
G1 X46.3 Y17.735 Z66.52  
G1 X55.732 Y12.09 Z66.53  
G1 X65.716 Y7.503 Z66.53  
G1 X76.139 Y4.024 Z66.54  
G1 X86.856 Y1.701 Z66.54  
G1 X136.144 Y1.701 Z66.56  
G1 X146.861 Y4.024 Z66.57  
G1 X157.284 Y7.503 Z66.57  
G1 X167.268 Y12.09 Z66.58  
G1 X176.7 Y17.735 Z66.58  
G1 X185.456 Y24.362 Z66.59  
G1 X193.44 Y31.895 Z66.59  
G1 X200.571 Y40.264 Z66.60  
G1 X206.74 Y49.334 Z66.60  
G1 X211.902 Y59.045 Z66.61  
G1 X215.975 Y69.242 Z66.61  
G1 X218.924 Y79.838 Z66.61  
G1 X220.702 Y90.656 Z66.62  
G1 X221.3 Y101.646 Z66.62  
G1 X221.3 Y121.354 Z66.63  
G1 X220.702 Y132.34 Z66.64  
G1 X218.924 Y143.162 Z66.64  
G1 X215.975 Y153.758 Z66.65  
G1 X211.902 Y163.955 Z66.65  
G1 X206.741 Y173.664 Z66.66  
G1 X200.571 Y182.736 Z66.66  
G1 X193.44 Y191.105 Z66.67  
G1 X185.456 Y198.638 Z66.67  
G1 X176.7 Y205.265 Z66.67  
G1 X167.268 Y210.91 Z66.68  
G1 X157.284 Y215.497 Z66.69  
G1 X146.861 Y218.976 Z66.69  
G1 X136.144 Y221.299 Z66.69  
G1 X86.856 Y221.299 Z66.72  
G1 X76.139 Y218.976 Z66.72  
G1 X65.716 Y215.497 Z66.72  
G1 X55.732 Y210.91 Z66.73  
G1 X46.3 Y205.265 Z66.73  
G1 X37.544 Y198.638 Z66.74  
G1 X29.56 Y191.105 Z66.74  
G1 X22.429 Y182.736 Z66.75  
G1 X16.259 Y173.664 Z66.75  
G1 X11.098 Y163.955 Z66.76  
G1 X7.025 Y153.758 Z66.76  
G1 X4.076 Y143.162 Z66.77  
G1 X2.298 Y132.34 Z66.77  
G1 X1.7 Y121.354 Z66.78  
G1 X1.7 Y101.646 Z66.78  
G1 X2.298 Y90.656 Z66.79  
G1 X4.076 Y79.838 Z66.80  
G1 X7.025 Y69.242 Z66.80  
;LAYER:5
G1 X11.098 Y59.045 Z66.80  
G1 X16.26 Y49.334 Z66.81  
G1 X22.429 Y40.264 Z66.81  
G1 X29.56 Y31.895 Z66.82  
G1 X37.544 Y24.362 Z66.82  
G1 X46.3 Y17.735 Z66.83  
G1 X55.732 Y12.09 Z66.83  
G1 X65.716 Y7.503 Z66.84  
G1 X76.139 Y4.024 Z66.84  
G1 X86.856 Y1.701 Z66.85  
G1 X136.144 Y1.701 Z66.87  
G1 X146.861 Y4.024 Z66.87  
G1 X157.284 Y7.503 Z66.88  
G1 X167.268 Y12.09 Z66.88  
G1 X176.7 Y17.735 Z66.89  
G1 X185.456 Y24.362 Z66.89  
G1 X193.44 Y31.895 Z66.90  
G1 X200.571 Y40.264 Z66.90  
G1 X206.74 Y49.334 Z66.91  
G1 X211.902 Y59.045 Z66.91  
G1 X215.975 Y69.242 Z66.92  
G1 X218.924 Y79.838 Z66.92  
G1 X220.702 Y90.656 Z66.92  
G1 X221.3 Y101.646 Z66.93  
G1 X221.3 Y121.354 Z66.94  
G1 X220.702 Y132.34 Z66.94  
G1 X218.924 Y143.162 Z66.95  
G1 X215.975 Y153.758 Z66.95  
G1 X211.902 Y163.955 Z66.96  
G1 X206.741 Y173.664 Z66.96  
G1 X200.571 Y182.736 Z66.97  
G1 X193.44 Y191.105 Z66.97  
G1 X185.456 Y198.638 Z66.97  
G1 X176.7 Y205.265 Z66.98  
G1 X167.268 Y210.91 Z66.98  
G1 X157.284 Y215.497 Z66.99  
G1 X146.861 Y218.976 Z66.99  
G1 X136.144 Y221.299 Z67.00  
G1 X86.856 Y221.299 Z67.02  
G1 X76.139 Y218.976 Z67.03  
G1 X65.716 Y215.497 Z67.03  
G1 X55.732 Y210.91 Z67.03  
G1 X46.3 Y205.265 Z67.04  
G1 X37.544 Y198.638 Z67.04  
G1 X29.56 Y191.105 Z67.05  
G1 X22.429 Y182.736 Z67.05  
G1 X16.259 Y173.664 Z67.06  
G1 X11.098 Y163.955 Z67.06  
G1 X7.025 Y153.758 Z67.07  
G1 X4.076 Y143.162 Z67.07  
G1 X2.298 Y132.34 Z67.08  
G1 X1.7 Y121.354 Z67.08  
G1 X1.7 Y101.646 Z67.09  
G1 X2.298 Y90.656 Z67.09  
G1 X4.076 Y79.838 Z67.10  
;LAYER:6
G1 X7.025 Y69.242 Z67.10  
G1 X11.098 Y59.045 Z67.11  
G1 X16.26 Y49.334 Z67.11  
G1 X22.429 Y40.264 Z67.12  
G1 X29.56 Y31.895 Z67.12  
G1 X37.544 Y24.362 Z67.13  
G1 X46.3 Y17.735 Z67.13  
G1 X55.732 Y12.09 Z67.14  
G1 X65.716 Y7.503 Z67.14  
G1 X76.139 Y4.024 Z67.15  
G1 X86.856 Y1.701 Z67.15  
G1 X136.144 Y1.701 Z67.17  
G1 X146.861 Y4.024 Z67.18  
G1 X157.284 Y7.503 Z67.18  
G1 X167.268 Y12.09 Z67.19  
G1 X176.7 Y17.735 Z67.19  
G1 X185.456 Y24.362 Z67.20  
G1 X193.44 Y31.895 Z67.20  
G1 X200.571 Y40.264 Z67.21  
G1 X206.74 Y49.334 Z67.21  
G1 X211.902 Y59.045 Z67.22  
G1 X215.975 Y69.242 Z67.22  
G1 X218.924 Y79.838 Z67.22  
G1 X220.702 Y90.656 Z67.23  
G1 X221.3 Y101.646 Z67.23  
G1 X221.3 Y121.354 Z67.24  
G1 X220.702 Y132.34 Z67.25  
G1 X218.924 Y143.162 Z67.25  
G1 X215.975 Y153.758 Z67.26  
G1 X211.902 Y163.955 Z67.26  
G1 X206.741 Y173.664 Z67.27  
G1 X200.571 Y182.736 Z67.27  
G1 X193.44 Y191.105 Z67.28  
G1 X185.456 Y198.638 Z67.28  
G1 X176.7 Y205.265 Z67.28  
G1 X167.268 Y210.91 Z67.29  
G1 X157.284 Y215.497 Z67.29  
G1 X146.861 Y218.976 Z67.30  
G1 X136.144 Y221.299 Z67.30  
G1 X86.856 Y221.299 Z67.33  
G1 X76.139 Y218.976 Z67.33  
G1 X65.716 Y215.497 Z67.33  
G1 X55.732 Y210.91 Z67.34  
G1 X46.3 Y205.265 Z67.34  
G1 X37.544 Y198.638 Z67.35  
G1 X29.56 Y191.105 Z67.35  
G1 X22.429 Y182.736 Z67.36  
G1 X16.259 Y173.664 Z67.36  
G1 X11.098 Y163.955 Z67.37  
G1 X7.025 Y153.758 Z67.37  
G1 X4.076 Y143.162 Z67.38  
G1 X2.298 Y132.34 Z67.38  
G1 X1.7 Y121.354 Z67.39  
G1 X1.7 Y101.646 Z67.39  
G1 X2.298 Y90.656 Z67.40  
;LAYER:7
G1 X4.076 Y79.838 Z67.40  
G1 X7.025 Y69.242 Z67.41  
G1 X11.098 Y59.045 Z67.41  
G1 X16.26 Y49.334 Z67.42  
G1 X22.429 Y40.264 Z67.42  
G1 X29.56 Y31.895 Z67.43  
G1 X37.544 Y24.362 Z67.43  
G1 X46.3 Y17.735 Z67.44  
G1 X55.732 Y12.09 Z67.44  
G1 X65.716 Y7.503 Z67.45  
G1 X76.139 Y4.024 Z67.45  
G1 X86.856 Y1.701 Z67.46  
G1 X136.144 Y1.701 Z67.48  
G1 X146.861 Y4.024 Z67.48  
G1 X157.284 Y7.503 Z67.49  
G1 X167.268 Y12.09 Z67.49  
G1 X176.7 Y17.735 Z67.50  
G1 X185.456 Y24.362 Z67.50  
G1 X193.44 Y31.895 Z67.51  
G1 X200.571 Y40.264 Z67.51  
G1 X206.74 Y49.334 Z67.52  
G1 X211.902 Y59.045 Z67.52  
G1 X215.975 Y69.242 Z67.53  
G1 X218.924 Y79.838 Z67.53  
G1 X220.702 Y90.656 Z67.53  
G1 X221.3 Y101.646 Z67.54  
G1 X221.3 Y121.354 Z67.55  
G1 X220.702 Y132.34 Z67.55  
G1 X218.924 Y143.162 Z67.56  
G1 X215.975 Y153.758 Z67.56  
G1 X211.902 Y163.955 Z67.57  
G1 X206.741 Y173.664 Z67.57  
G1 X200.571 Y182.736 Z67.58  
G1 X193.44 Y191.105 Z67.58  
G1 X185.456 Y198.638 Z67.58  
G1 X176.7 Y205.265 Z67.59  
G1 X167.268 Y210.91 Z67.59  
G1 X157.284 Y215.497 Z67.60  
G1 X146.861 Y218.976 Z67.60  
G1 X136.144 Y221.299 Z67.61  
G1 X86.856 Y221.299 Z67.63  
G1 X76.139 Y218.976 Z67.63  
G1 X65.716 Y215.497 Z67.64  
G1 X55.732 Y210.91 Z67.64  
G1 X46.3 Y205.265 Z67.65  
G1 X37.544 Y198.638 Z67.65  
G1 X29.56 Y191.105 Z67.66  
G1 X22.429 Y182.736 Z67.66  
G1 X16.259 Y173.664 Z67.67  
G1 X11.098 Y163.955 Z67.67  
G1 X7.025 Y153.758 Z67.68  
G1 X4.076 Y143.162 Z67.68  
G1 X2.298 Y132.34 Z67.69  
G1 X1.7 Y121.354 Z67.69  
G1 X1.7 Y101.646 Z67.70  
;LAYER:8
G1 X2.298 Y90.656 Z67.70  
G1 X4.076 Y79.838 Z67.71  
G1 X7.025 Y69.242 Z67.71  
G1 X11.098 Y59.045 Z67.72  
G1 X16.26 Y49.334 Z67.72  
G1 X22.429 Y40.264 Z67.73  
G1 X29.56 Y31.895 Z67.73  
G1 X37.544 Y24.362 Z67.74  
G1 X46.3 Y17.735 Z67.74  
G1 X55.732 Y12.09 Z67.75  
G1 X65.716 Y7.503 Z67.75  
G1 X76.139 Y4.024 Z67.76  
G1 X86.856 Y1.701 Z67.76  
G1 X136.144 Y1.701 Z67.78  
G1 X146.861 Y4.024 Z67.79  
G1 X157.284 Y7.503 Z67.79  
G1 X167.268 Y12.09 Z67.80  
G1 X176.7 Y17.735 Z67.80  
G1 X185.456 Y24.362 Z67.81  
G1 X193.44 Y31.895 Z67.81  
G1 X200.571 Y40.264 Z67.82  
G1 X206.74 Y49.334 Z67.82  
G1 X211.902 Y59.045 Z67.83  
G1 X215.975 Y69.242 Z67.83  
G1 X218.924 Y79.838 Z67.84  
G1 X220.702 Y90.656 Z67.84  
G1 X221.3 Y101.646 Z67.84  
G1 X221.3 Y121.354 Z67.85  
G1 X220.702 Y132.34 Z67.86  
G1 X218.924 Y143.162 Z67.86  
G1 X215.975 Y153.758 Z67.87  
G1 X211.902 Y163.955 Z67.87  
G1 X206.741 Y173.664 Z67.88  
G1 X200.571 Y182.736 Z67.88  
G1 X193.44 Y191.105 Z67.89  
G1 X185.456 Y198.638 Z67.89  
G1 X176.7 Y205.265 Z67.90  
G1 X167.268 Y210.91 Z67.90  
G1 X157.284 Y215.497 Z67.91  
G1 X146.861 Y218.976 Z67.91  
G1 X136.144 Y221.299 Z67.92  
G1 X86.856 Y221.299 Z67.94  
G1 X76.139 Y218.976 Z67.94  
G1 X65.716 Y215.497 Z67.95  
G1 X55.732 Y210.91 Z67.95  
G1 X46.3 Y205.265 Z67.96  
G1 X37.544 Y198.638 Z67.96  
G1 X29.56 Y191.105 Z67.97  
G1 X22.429 Y182.736 Z67.97  
G1 X16.259 Y173.664 Z67.98  
G1 X11.098 Y163.955 Z67.98  
G1 X7.025 Y153.758 Z67.98  
G1 X4.076 Y143.162 Z67.99  
G1 X2.298 Y132.34 Z68.00  
G1 X1.7 Y121.354 Z68.00  
;LAYER:9
G1 X1.7 Y101.646 Z68.01  
G1 X2.298 Y90.656 Z68.01  
G1 X4.076 Y79.838 Z68.02  
G1 X7.025 Y69.242 Z68.02  
G1 X11.098 Y59.045 Z68.03  
G1 X16.26 Y49.334 Z68.03  
G1 X22.429 Y40.264 Z68.04  
G1 X29.56 Y31.895 Z68.04  
G1 X37.544 Y24.362 Z68.05  
G1 X46.3 Y17.735 Z68.05  
G1 X55.732 Y12.09 Z68.06  
G1 X65.716 Y7.503 Z68.06  
