;FLAVOR:UltiGCode
;TIME:3219
;MATERIAL:36865
;MATERIAL2:0
;NOZZLE_DIAMETER:0.4
;Generated with Cura_SteamEngine 2.5.0

;LAYER_COUNT:433
;LAYER:0
M107
G0 F6000 X29.56 Y31.895 Z0.3
;TYPE:WALL-OUTER
G1 F600 X37.544 Y24.362 E1.31722
G1 X46.3 Y17.735 E2.63495
G1 X55.732 Y12.09 E3.95401
G1 X65.716 Y7.503 E5.27249
G1 X76.139 Y4.024 E6.59109
G1 X86.844 Y1.704 E7.90551
G1 X136.144 Y1.701 E13.82151
G1 X146.861 Y4.024 E15.13741
G1 X157.284 Y7.503 E16.45601
G1 X167.268 Y12.09 E17.77448
G1 X176.7 Y17.735 E19.09355
G1 X185.456 Y24.362 E20.41128
G1 X193.44 Y31.895 E21.7285
G1 X200.571 Y40.264 E23.0479
G1 X206.74 Y49.334 E24.3642
G1 X211.902 Y59.045 E25.68392
G1 X215.975 Y69.242 E27.00157
G1 X218.924 Y79.838 E28.32141
G1 X220.702 Y90.656 E29.63699
G1 X221.3 Y101.646 E30.95774
G1 X221.3 Y121.354 E33.3227
G1 X220.702 Y132.34 E34.64297
G1 X218.924 Y143.162 E35.95902
G1 X215.975 Y153.758 E37.27887
G1 X211.902 Y163.955 E38.59651
G1 X206.741 Y173.664 E39.91597
G1 X200.571 Y182.736 E41.23253
G1 X193.44 Y191.105 E42.55193
G1 X185.456 Y198.638 E43.86915
G1 X176.7 Y205.265 E45.18688
G1 X167.268 Y210.91 E46.50595
G1 X157.284 Y215.497 E47.82443
G1 X146.861 Y218.976 E49.14302
G1 X136.144 Y221.299 E50.45892
G1 X86.856 Y221.299 E56.37348
G1 X76.139 Y218.976 E57.68939
G1 X65.716 Y215.497 E59.00798
G1 X55.732 Y210.91 E60.32646
G1 X46.3 Y205.265 E61.64552
G1 X37.544 Y198.638 E62.96326
G1 X29.56 Y191.105 E64.28047
G1 X22.429 Y182.736 E65.59988
G1 X16.259 Y173.664 E66.91644
G1 X11.098 Y163.955 E68.2359
G1 X7.025 Y153.758 E69.55354
G1 X4.076 Y143.162 E70.87339
G1 X2.298 Y132.34 E72.18944
G1 X1.7 Y121.354 E73.50971
G1 X1.7 Y101.646 E75.87467
G1 X2.298 Y90.656 E77.19542
G1 X4.076 Y79.838 E78.511
G1 X7.025 Y69.242 E79.83084
G1 X11.098 Y59.045 E81.14849
G1 X16.26 Y49.334 E82.46821
G1 X22.429 Y40.264 E83.78451
G1 X29.56 Y31.895 E85.10391
G1 X37.544 Y24.362 Z0.304 E86.42113
G1 X46.3 Y17.735 Z0.309 E87.73886
G1 X55.732 Y12.09 Z0.313 E89.05793
G1 X65.716 Y7.503 Z0.318 E90.3764
G1 X76.139 Y4.024 Z0.323 E91.695
G1 X86.844 Y1.704 Z0.327 E93.00942
G1 X136.144 Y1.701 Z0.348 E98.92542
G1 X146.861 Y4.024 Z0.353 E100.24133
G1 X157.284 Y7.503 Z0.358 E101.55992
G1 X167.268 Y12.09 Z0.362 E102.8784
G1 X176.7 Y17.735 Z0.367 E104.19746
G1 X185.456 Y24.362 Z0.371 E105.51519
G1 X193.44 Y31.895 Z0.376 E106.83241
G1 X200.571 Y40.264 Z0.381 E108.15182
G1 X206.74 Y49.334 Z0.385 E109.46811
G1 X211.902 Y59.045 Z0.39 E110.78784
G1 X215.975 Y69.242 Z0.395 E112.10548
G1 X218.924 Y79.838 Z0.399 E113.42533
G1 X220.702 Y90.656 Z0.404 E114.7409
G1 X221.3 Y101.646 Z0.409 E116.06165
G1 X221.3 Y121.354 Z0.417 E118.42661
G1 X220.702 Y132.34 Z0.422 E119.74689
G1 X218.924 Y143.162 Z0.426 E121.06294
G1 X215.975 Y153.758 Z0.431 E122.38278
G1 X211.902 Y163.955 Z0.436 E123.70043
G1 X206.741 Y173.664 Z0.44 E125.01988
G1 X200.571 Y182.736 Z0.445 E126.33644
G1 X193.44 Y191.105 Z0.449 E127.65585
G1 X185.456 Y198.638 Z0.454 E128.97307
G1 X176.7 Y205.265 Z0.459 E130.2908
G1 X167.268 Y210.91 Z0.463 E131.60987
G1 X157.284 Y215.497 Z0.468 E132.92834
G1 X146.861 Y218.976 Z0.473 E134.24694
G1 X136.144 Y221.299 Z0.477 E135.56284
G1 X86.856 Y221.299 Z0.498 E141.4774
G1 X76.139 Y218.976 Z0.503 E142.79331
G1 X65.716 Y215.497 Z0.508 E144.1119
G1 X55.732 Y210.91 Z0.512 E145.43038
G1 X46.3 Y205.265 Z0.517 E146.74944
G1 X37.544 Y198.638 Z0.521 E148.06718
G1 X29.56 Y191.105 Z0.526 E149.38439
G1 X22.429 Y182.736 Z0.531 E150.7038
G1 X16.259 Y173.664 Z0.535 E152.02036
G1 X11.098 Y163.955 Z0.54 E153.33982
G1 X7.025 Y153.758 Z0.545 E154.65746
G1 X4.076 Y143.162 Z0.549 E155.97731
G1 X2.298 Y132.34 Z0.554 E157.29336
G1 X1.7 Y121.354 Z0.559 E158.61363
G1 X1.7 Y101.646 Z0.567 E160.97859
G1 X2.298 Y90.656 Z0.572 E162.29934
G1 X4.076 Y79.838 Z0.576 E163.61492
G1 X7.025 Y69.242 Z0.581 E164.93476
G1 X11.098 Y59.045 Z0.586 E166.2524
G1 X16.26 Y49.334 Z0.59 E167.57213
G1 X22.429 Y40.264 Z0.595 E168.88842
G1 X29.56 Y31.895 Z0.6 E170.20783
;TIME_ELAPSED:142.310067
;LAYER:1
;TYPE:WALL-OUTER
G1 F3300 X37.544 Y24.362 Z0.604 E171.52505
G1 X46.3 Y17.735 Z0.609 E172.84278
G1 X55.732 Y12.09 Z0.614 E174.16185
G1 X65.716 Y7.503 Z0.618 E175.48032
G1 X76.139 Y4.024 Z0.623 E176.79892
G1 X86.856 Y1.704 Z0.628 E178.11475
G1 X136.144 Y1.701 Z0.649 E184.02931
G1 X146.861 Y4.024 Z0.654 E185.34521
G1 X157.284 Y7.503 Z0.658 E186.66381
G1 X167.268 Y12.09 Z0.663 E187.98228
G1 X176.7 Y17.735 Z0.668 E189.30135
G1 X185.456 Y24.362 Z0.673 E190.61908
G1 X193.44 Y31.895 Z0.677 E191.9363
G1 X200.571 Y40.264 Z0.682 E193.25571
G1 X206.74 Y49.334 Z0.687 E194.572
G1 X211.902 Y59.045 Z0.691 E195.89173
G1 X215.975 Y69.242 Z0.696 E197.20937
G1 X218.924 Y79.838 Z0.701 E198.52921
G1 X220.702 Y90.656 Z0.706 E199.84479
G1 X221.3 Y101.646 Z0.71 E201.16554
G1 X221.3 Y121.354 Z0.719 E203.5305
G1 X220.702 Y132.34 Z0.724 E204.85077
G1 X218.924 Y143.162 Z0.728 E206.16682
G1 X215.975 Y153.758 Z0.733 E207.48667
G1 X211.902 Y163.955 Z0.738 E208.80431
G1 X206.741 Y173.664 Z0.742 E210.12377
G1 X200.571 Y182.736 Z0.747 E211.44033
G1 X193.44 Y191.105 Z0.752 E212.75974
G1 X185.456 Y198.638 Z0.757 E214.07695
G1 X176.7 Y205.265 Z0.761 E215.39469
G1 X167.268 Y210.91 Z0.766 E216.71375
G1 X157.284 Y215.497 Z0.771 E218.03223
G1 X146.861 Y218.976 Z0.775 E219.35082
G1 X136.144 Y221.299 Z0.78 E220.66673
G1 X86.856 Y221.299 Z0.801 E226.58129
G1 X76.139 Y218.976 Z0.806 E227.89719
G1 X65.716 Y215.497 Z0.811 E229.21579
G1 X55.732 Y210.91 Z0.816 E230.53426
G1 X46.3 Y205.265 Z0.82 E231.85333
G1 X37.544 Y198.638 Z0.825 E233.17106
G1 X29.56 Y191.105 Z0.83 E234.48828
G1 X22.429 Y182.736 Z0.834 E235.80769
G1 X16.259 Y173.664 Z0.839 E237.12425
G1 X11.098 Y163.955 Z0.844 E238.4437
G1 X7.025 Y153.758 Z0.849 E239.76135
G1 X4.076 Y143.162 Z0.853 E241.08119
G1 X2.298 Y132.34 Z0.858 E242.39724
G1 X1.7 Y121.354 Z0.863 E243.71752
G1 X1.7 Y101.646 Z0.871 E246.08248
G1 X2.298 Y90.656 Z0.876 E247.40323
G1 X4.076 Y79.838 Z0.881 E248.7188
G1 X7.025 Y69.242 Z0.885 E250.03865
G1 X11.098 Y59.045 Z0.89 E251.35629
G1 X16.26 Y49.334 Z0.895 E252.67602
G1 X22.429 Y40.264 Z0.9 E253.99231
;TIME_ELAPSED:155.019971
;LAYER:2
;TYPE:WALL-OUTER
G1 F6000 X29.56 Y31.895 Z0.904 E255.31172
G1 X37.544 Y24.362 Z0.909 E256.62894
G1 X46.3 Y17.735 Z0.914 E257.94667
G1 X55.732 Y12.09 Z0.918 E259.26573
G1 X65.716 Y7.503 Z0.923 E260.58421
G1 X76.139 Y4.024 Z0.928 E261.90281
G1 X86.856 Y1.701 Z0.933 E263.21871
G1 X136.144 Y1.701 Z0.954 E269.13327
G1 X146.861 Y4.024 Z0.958 E270.44918
G1 X157.284 Y7.503 Z0.963 E271.76777
G1 X167.268 Y12.09 Z0.968 E273.08625
G1 X176.7 Y17.735 Z0.973 E274.40531
G1 X185.456 Y24.362 Z0.977 E275.72304
G1 X193.44 Y31.895 Z0.982 E277.04026
G1 X200.571 Y40.264 Z0.987 E278.35967
G1 X206.74 Y49.334 Z0.991 E279.67596
G1 X211.902 Y59.045 Z0.996 E280.99569
G1 X215.975 Y69.242 Z1.001 E282.31333
G1 X218.924 Y79.838 Z1.006 E283.63318
G1 X220.702 Y90.656 Z1.01 E284.94875
G1 X221.3 Y101.646 Z1.015 E286.26951
G1 X221.3 Y121.354 Z1.024 E288.63447
G1 X220.702 Y132.34 Z1.028 E289.95474
G1 X218.924 Y143.162 Z1.033 E291.27079
G1 X215.975 Y153.758 Z1.038 E292.59063
G1 X211.902 Y163.955 Z1.042 E293.90828
G1 X206.741 Y173.664 Z1.047 E295.22773
G1 X200.571 Y182.736 Z1.052 E296.54429
G1 X193.44 Y191.105 Z1.057 E297.8637
G1 X185.456 Y198.638 Z1.061 E299.18092
G1 X176.7 Y205.265 Z1.066 E300.49865
G1 X167.268 Y210.91 Z1.071 E301.81772
G1 X157.284 Y215.497 Z1.075 E303.13619
G1 X146.861 Y218.976 Z1.08 E304.45479
G1 X136.144 Y221.299 Z1.085 E305.77069
G1 X86.856 Y221.299 Z1.106 E311.68525
G1 X76.139 Y218.976 Z1.111 E313.00116
G1 X65.716 Y215.497 Z1.116 E314.31975
G1 X55.732 Y210.91 Z1.12 E315.63823
G1 X46.3 Y205.265 Z1.125 E316.95729
G1 X37.544 Y198.638 Z1.13 E318.27503
G1 X29.56 Y191.105 Z1.134 E319.59224
G1 X22.429 Y182.736 Z1.139 E320.91165
G1 X16.259 Y173.664 Z1.144 E322.22821
G1 X11.098 Y163.955 Z1.149 E323.54767
G1 X7.025 Y153.758 Z1.153 E324.86531
G1 X4.076 Y143.162 Z1.158 E326.18516
G1 X2.298 Y132.34 Z1.163 E327.50121
G1 X1.7 Y121.354 Z1.167 E328.82148
G1 X1.7 Y101.646 Z1.176 E331.18644
G1 X2.298 Y90.656 Z1.181 E332.50719
G1 X4.076 Y79.838 Z1.185 E333.82277
G1 X7.025 Y69.242 Z1.19 E335.14261
G1 X11.098 Y59.045 Z1.195 E336.46026
G1 X16.26 Y49.334 Z1.2 E337.77998
;TIME_ELAPSED:162.032928
;LAYER:3
;TYPE:WALL-OUTER
G1 X22.429 Y40.264 Z1.204 E339.09628
G1 X29.56 Y31.895 Z1.209 E340.41568
G1 X37.544 Y24.362 Z1.214 E341.7329
G1 X46.3 Y17.735 Z1.218 E343.05063
G1 X55.732 Y12.09 Z1.223 E344.3697
G1 X65.716 Y7.503 Z1.228 E345.68817
G1 X76.139 Y4.024 Z1.233 E347.00677
G1 X86.856 Y1.701 Z1.237 E348.32267
G1 X136.144 Y1.701 Z1.258 E354.23723
G1 X146.861 Y4.024 Z1.263 E355.55314
G1 X157.284 Y7.503 Z1.268 E356.87173
G1 X167.268 Y12.09 Z1.273 E358.19021
G1 X176.7 Y17.735 Z1.277 E359.50928
G1 X185.456 Y24.362 Z1.282 E360.82701
G1 X193.44 Y31.895 Z1.287 E362.14423
G1 X200.571 Y40.264 Z1.291 E363.46363
G1 X206.74 Y49.334 Z1.296 E364.77993
G1 X211.902 Y59.045 Z1.301 E366.09965
G1 X215.975 Y69.242 Z1.306 E367.41729
G1 X218.924 Y79.838 Z1.31 E368.73714
G1 X220.702 Y90.656 Z1.315 E370.05272
G1 X221.3 Y101.646 Z1.32 E371.37347
G1 X221.3 Y121.354 Z1.328 E373.73843
G1 X220.702 Y132.34 Z1.333 E375.0587
G1 X218.924 Y143.162 Z1.338 E376.37475
G1 X215.975 Y153.758 Z1.342 E377.6946
G1 X211.902 Y163.955 Z1.347 E379.01224
G1 X206.741 Y173.664 Z1.352 E380.3317
G1 X200.571 Y182.736 Z1.357 E381.64826
G1 X193.44 Y191.105 Z1.361 E382.96766
G1 X185.456 Y198.638 Z1.366 E384.28488
G1 X176.7 Y205.265 Z1.371 E385.60261
G1 X167.268 Y210.91 Z1.375 E386.92168
G1 X157.284 Y215.497 Z1.38 E388.24016
G1 X146.861 Y218.976 Z1.385 E389.55875
G1 X136.144 Y221.299 Z1.39 E390.87466
G1 X86.856 Y221.299 Z1.411 E396.78922
G1 X76.139 Y218.976 Z1.416 E398.10512
G1 X65.716 Y215.497 Z1.42 E399.42372
G1 X55.732 Y210.91 Z1.425 E400.74219
G1 X46.3 Y205.265 Z1.43 E402.06126
G1 X37.544 Y198.638 Z1.434 E403.37899
G1 X29.56 Y191.105 Z1.439 E404.69621
G1 X22.429 Y182.736 Z1.444 E406.01561
G1 X16.259 Y173.664 Z1.449 E407.33217
G1 X11.098 Y163.955 Z1.453 E408.65163
G1 X7.025 Y153.758 Z1.458 E409.96927
G1 X4.076 Y143.162 Z1.463 E411.28912
G1 X2.298 Y132.34 Z1.467 E412.60517
G1 X1.7 Y121.354 Z1.472 E413.92544
G1 X1.7 Y101.646 Z1.481 E416.2904
G1 X2.298 Y90.656 Z1.485 E417.61115
G1 X4.076 Y79.838 Z1.49 E418.92673
G1 X7.025 Y69.242 Z1.495 E420.24658
G1 X11.098 Y59.045 Z1.5 E421.56422
;TIME_ELAPSED:169.045598
;LAYER:4
;TYPE:WALL-OUTER
G1 X16.26 Y49.334 Z1.504 E422.88395
G1 X22.429 Y40.264 Z1.509 E424.20024
G1 X29.56 Y31.895 Z1.514 E425.51965
G1 X37.544 Y24.362 Z1.518 E426.83686
G1 X46.3 Y17.735 Z1.523 E428.1546
G1 X55.732 Y12.09 Z1.528 E429.47366
G1 X65.716 Y7.503 Z1.533 E430.79214
G1 X76.139 Y4.024 Z1.537 E432.11073
G1 X86.856 Y1.701 Z1.542 E433.42664
G1 X136.144 Y1.701 Z1.563 E439.3412
G1 X146.861 Y4.024 Z1.568 E440.6571
G1 X157.284 Y7.503 Z1.573 E441.9757
G1 X167.268 Y12.09 Z1.577 E443.29417
G1 X176.7 Y17.735 Z1.582 E444.61324
G1 X185.456 Y24.362 Z1.587 E445.93097
G1 X193.44 Y31.895 Z1.591 E447.24819
G1 X200.571 Y40.264 Z1.596 E448.5676
G1 X206.74 Y49.334 Z1.601 E449.88389
G1 X211.902 Y59.045 Z1.606 E451.20362
G1 X215.975 Y69.242 Z1.61 E452.52126
G1 X218.924 Y79.838 Z1.615 E453.8411
G1 X220.702 Y90.656 Z1.62 E455.15668
G1 X221.3 Y101.646 Z1.625 E456.47743
G1 X221.3 Y121.354 Z1.633 E458.84239
G1 X220.702 Y132.34 Z1.638 E460.16266
G1 X218.924 Y143.162 Z1.642 E461.47871
G1 X215.975 Y153.758 Z1.647 E462.79856
G1 X211.902 Y163.955 Z1.652 E464.1162
G1 X206.741 Y173.664 Z1.657 E465.43566
G1 X200.571 Y182.736 Z1.661 E466.75222
G1 X193.44 Y191.105 Z1.666 E468.07163
G1 X185.456 Y198.638 Z1.671 E469.38885
G1 X176.7 Y205.265 Z1.675 E470.70658
G1 X167.268 Y210.91 Z1.68 E472.02564
G1 X157.284 Y215.497 Z1.685 E473.34412
G1 X146.861 Y218.976 Z1.69 E474.66271
G1 X136.144 Y221.299 Z1.694 E475.97862
G1 X86.856 Y221.299 Z1.716 E481.89318
G1 X76.139 Y218.976 Z1.72 E483.20908
G1 X65.716 Y215.497 Z1.725 E484.52768
G1 X55.732 Y210.91 Z1.73 E485.84616
G1 X46.3 Y205.265 Z1.734 E487.16522
G1 X37.544 Y198.638 Z1.739 E488.48295
G1 X29.56 Y191.105 Z1.744 E489.80017
G1 X22.429 Y182.736 Z1.749 E491.11958
G1 X16.259 Y173.664 Z1.753 E492.43614
G1 X11.098 Y163.955 Z1.758 E493.7556
G1 X7.025 Y153.758 Z1.763 E495.07324
G1 X4.076 Y143.162 Z1.767 E496.39308
G1 X2.298 Y132.34 Z1.772 E497.70913
G1 X1.7 Y121.354 Z1.777 E499.02941
G1 X1.7 Y101.646 Z1.785 E501.39437
G1 X2.298 Y90.656 Z1.79 E502.71512
G1 X4.076 Y79.838 Z1.795 E504.03069
G1 X7.025 Y69.242 Z1.8 E505.35054
;TIME_ELAPSED:176.058442
;LAYER:5
;TYPE:WALL-OUTER
G1 X11.098 Y59.045 Z1.804 E506.66818
G1 X16.26 Y49.334 Z1.809 E507.98791
G1 X22.429 Y40.264 Z1.814 E509.3042
G1 X29.56 Y31.895 Z1.818 E510.62361
G1 X37.544 Y24.362 Z1.823 E511.94083
G1 X46.3 Y17.735 Z1.828 E513.25856
G1 X55.732 Y12.09 Z1.833 E514.57763
G1 X65.716 Y7.503 Z1.837 E515.8961
G1 X76.139 Y4.024 Z1.842 E517.2147
G1 X86.856 Y1.701 Z1.847 E518.5306
G1 X136.144 Y1.701 Z1.868 E524.44516
G1 X146.861 Y4.024 Z1.873 E525.76107
G1 X157.284 Y7.503 Z1.877 E527.07966
G1 X167.268 Y12.09 Z1.882 E528.39814
G1 X176.7 Y17.735 Z1.887 E529.7172
G1 X185.456 Y24.362 Z1.891 E531.03494
G1 X193.44 Y31.895 Z1.896 E532.35215
G1 X200.571 Y40.264 Z1.901 E533.67156
G1 X206.74 Y49.334 Z1.906 E534.98785
G1 X211.902 Y59.045 Z1.91 E536.30758
G1 X215.975 Y69.242 Z1.915 E537.62522
G1 X218.924 Y79.838 Z1.92 E538.94507
G1 X220.702 Y90.656 Z1.925 E540.26065
G1 X221.3 Y101.646 Z1.929 E541.5814
G1 X221.3 Y121.354 Z1.938 E543.94636
G1 X220.702 Y132.34 Z1.942 E545.26663
G1 X218.924 Y143.162 Z1.947 E546.58268
G1 X215.975 Y153.758 Z1.952 E547.90252
G1 X211.902 Y163.955 Z1.957 E549.22017
G1 X206.741 Y173.664 Z1.961 E550.53963
G1 X200.571 Y182.736 Z1.966 E551.85618
G1 X193.44 Y191.105 Z1.971 E553.17559
G1 X185.456 Y198.638 Z1.975 E554.49281
G1 X176.7 Y205.265 Z1.98 E555.81054
G1 X167.268 Y210.91 Z1.985 E557.12961
G1 X157.284 Y215.497 Z1.99 E558.44808
G1 X146.861 Y218.976 Z1.994 E559.76668
G1 X136.144 Y221.299 Z1.999 E561.08258
G1 X86.856 Y221.299 Z2.02 E566.99714
G1 X76.139 Y218.976 Z2.025 E568.31305
G1 X65.716 Y215.497 Z2.03 E569.63164
G1 X55.732 Y210.91 Z2.034 E570.95012
G1 X46.3 Y205.265 Z2.039 E572.26918
G1 X37.544 Y198.638 Z2.044 E573.58692
G1 X29.56 Y191.105 Z2.049 E574.90413
G1 X22.429 Y182.736 Z2.053 E576.22354
G1 X16.259 Y173.664 Z2.058 E577.5401
G1 X11.098 Y163.955 Z2.063 E578.85956
G1 X7.025 Y153.758 Z2.067 E580.1772
G1 X4.076 Y143.162 Z2.072 E581.49705
G1 X2.298 Y132.34 Z2.077 E582.8131
G1 X1.7 Y121.354 Z2.082 E584.13337
G1 X1.7 Y101.646 Z2.09 E586.49833
G1 X2.298 Y90.656 Z2.095 E587.81908
G1 X4.076 Y79.838 Z2.1 E589.13466
;TIME_ELAPSED:183.071102
;LAYER:6
;TYPE:WALL-OUTER
G1 X7.025 Y69.242 Z2.104 E590.4545
G1 X11.098 Y59.045 Z2.109 E591.77215
G1 X16.26 Y49.334 Z2.114 E593.09187
G1 X22.429 Y40.264 Z2.118 E594.40817
G1 X29.56 Y31.895 Z2.123 E595.72757
G1 X37.544 Y24.362 Z2.128 E597.04479
G1 X46.3 Y17.735 Z2.133 E598.36252
G1 X55.732 Y12.09 Z2.137 E599.68159
G1 X65.716 Y7.503 Z2.142 E601.00007
G1 X76.139 Y4.024 Z2.147 E602.31866
G1 X86.856 Y1.701 Z2.151 E603.63456
G1 X136.144 Y1.701 Z2.173 E609.54913
G1 X146.861 Y4.024 Z2.177 E610.86503
G1 X157.284 Y7.503 Z2.182 E612.18362
G1 X167.268 Y12.09 Z2.187 E613.5021
G1 X176.7 Y17.735 Z2.191 E614.82117
G1 X185.456 Y24.362 Z2.196 E616.1389
G1 X193.44 Y31.895 Z2.201 E617.45612
G1 X200.571 Y40.264 Z2.206 E618.77552
G1 X206.74 Y49.334 Z2.21 E620.09182
G1 X211.902 Y59.045 Z2.215 E621.41154
G1 X215.975 Y69.242 Z2.22 E622.72919
G1 X218.924 Y79.838 Z2.225 E624.04903
G1 X220.702 Y90.656 Z2.229 E625.36461
G1 X221.3 Y101.646 Z2.234 E626.68536
G1 X221.3 Y121.354 Z2.242 E629.05032
G1 X220.702 Y132.34 Z2.247 E630.37059
G1 X218.924 Y143.162 Z2.252 E631.68664
G1 X215.975 Y153.758 Z2.257 E633.00649
G1 X211.902 Y163.955 Z2.261 E634.32413
G1 X206.741 Y173.664 Z2.266 E635.64359
G1 X200.571 Y182.736 Z2.271 E636.96015
G1 X193.44 Y191.105 Z2.275 E638.27956
G1 X185.456 Y198.638 Z2.28 E639.59677
G1 X176.7 Y205.265 Z2.285 E640.91451
G1 X167.268 Y210.91 Z2.29 E642.23357
G1 X157.284 Y215.497 Z2.294 E643.55205
G1 X146.861 Y218.976 Z2.299 E644.87064
G1 X136.144 Y221.299 Z2.304 E646.18655
G1 X86.856 Y221.299 Z2.325 E652.10111
G1 X76.139 Y218.976 Z2.33 E653.41701
G1 X65.716 Y215.497 Z2.334 E654.73561
